src/icons/rotate-cw.svg

<svg fill="none" height="24" viewBox="0 0 24 24" width="24" xmlns="http://www.w3.org/2000/svg"><path d="m23 4v6h-6"/><path d="m20.49 15c-.65 1.8399-1.8804 3.4187-3.5058 4.4985s-3.5577 1.6021-5.5058 1.4881c-1.94802-.114-3.80624-.858-5.29464-2.1199-1.4884-1.262-2.52633-2.9735-2.95739-4.8766-.43106-1.9032-.23189-3.8949.56749-5.67502.79939-1.78012 2.15568-3.2522 3.8645-4.19443 1.70881-.94222 3.67754-1.30354 5.60964-1.02949 1.932.27404 3.7226 1.16859 5.102 2.54885l4.63 4.35999"/></svg>

<svg width="24" height="24" viewBox="0 0 24 24" fill="none" xmlns="http://www.w3.org/2000/svg" class="feather">
<path d="M23 4V10H17" />
<path d="M20.49 15C19.84 16.8399 18.6096 18.4187 16.9842 19.4985C15.3588 20.5783 13.4265 21.1006 11.4784 20.9866C9.53038 20.8726 7.67216 20.1286 6.18376 18.8667C4.69536 17.6047 3.65743 15.8932 3.22637 13.9901C2.79531 12.0869 2.99448 10.0952 3.79386 8.31508C4.59325 6.53496 5.94954 5.06288 7.65836 4.12065C9.36717 3.17843 11.3359 2.81711 13.268 3.09116C15.2 3.3652 16.9906 4.25975 18.37 5.64001L23 10" />
</svg>
